img/steps-icons/img2.svg

<svg width="54" height="46" viewBox="0 0 54 46" fill="none" xmlns="http://www.w3.org/2000/svg">
<path d="M16.319 10.7087C16.6278 10.6398 16.8748 10.4105 16.9643 10.1096C17.0539 9.80864 16.972 9.48322 16.7503 9.25923C16.5286 9.03525 16.2019 8.94784 15.8966 9.03081C8.89971 10.7565 3.99125 16.9884 4.00001 24.1351C4.00001 24.6128 4.39067 25 4.87258 25C5.35449 25 5.74515 24.6128 5.74515 24.1351C5.73743 17.7827 10.0999 12.2433 16.319 10.7087Z" fill="#0383FD"/>
<path d="M51.3 29.767H39.6V24.3559C39.6074 20.3419 38.3902 16.4214 36.1116 13.12L36.6003 7.01906C36.6711 6.1394 36.3094 5.28041 35.631 4.71758C33.0293 2.5956 30.0256 1.02366 26.8011 0.0965734C25.88 -0.157815 24.8935 0.0985218 24.2118 0.769343L20.3346 4.54172C20.16 4.53721 19.98 4.51557 19.8 4.51557C8.8699 4.52799 0.0123994 13.4036 0 24.3559V40.589C0.00297664 43.5762 2.4189 45.997 5.4 46H33.3C36.4289 45.9963 39.081 43.6921 39.528 40.589H47.7V43.2945C47.7 44.7887 48.9088 46 50.4 46H51.3C52.7912 46 54 44.7887 54 43.2945V32.4725C54 30.9783 52.7912 29.767 51.3 29.767ZM25.47 2.05716C25.6886 1.83597 26.0086 1.74892 26.3088 1.829C29.2975 2.68984 32.0815 4.14758 34.4934 6.11452C34.7145 6.30365 34.8308 6.58816 34.8057 6.87838L34.47 11.0647C34.2468 10.8185 34.0371 10.5624 33.8013 10.3261C30.8014 7.31379 26.9078 5.35729 22.7043 4.75004L25.47 2.05716ZM10.8 44.1963H5.4C3.41177 44.1963 1.8 42.5813 1.8 40.589V32.4725C1.8 31.9744 2.20294 31.5706 2.7 31.5706H3.3921C3.72094 31.5707 4.02356 31.7505 4.1814 32.0396C5.99605 35.4245 8.75866 38.2041 12.1293 40.0362C12.4197 40.1914 12.6008 40.4946 12.6 40.8244V43.2945C12.6 43.7926 12.1971 44.1963 11.7 44.1963H10.8ZM37.8 39.6871C37.797 42.1763 35.784 44.1933 33.3 44.1963H14.2344C14.341 43.9075 14.397 43.6024 14.4 43.2945V40.8244C14.4049 39.8178 13.8457 38.8937 12.9528 38.4327C9.91241 36.7509 7.41638 34.2316 5.76 31.1729C5.28623 30.3061 4.37843 29.767 3.3921 29.767H2.7C2.3927 29.7699 2.08823 29.8261 1.8 29.9329V24.3559C1.8 14.3945 9.85887 6.31924 19.8 6.31924C29.7411 6.31924 37.8 14.3945 37.8 24.3559V39.6871ZM39.6 38.7853V31.5706H42.3V33.3743C42.3 33.8724 42.7029 34.2761 43.2 34.2761C43.6971 34.2761 44.1 33.8724 44.1 33.3743V31.5706H47.7V38.7853H39.6ZM52.2 43.2945C52.2 43.7926 51.7971 44.1963 51.3 44.1963H50.4C49.9029 44.1963 49.5 43.7926 49.5 43.2945V31.5706H51.3C51.7971 31.5706 52.2 31.9744 52.2 32.4725V43.2945Z" fill="#0383FD"/>
<path d="M20 10C20.5523 10 21 9.55228 21 9C21 8.44772 20.5523 8 20 8C19.4477 8 19 8.44772 19 9C19 9.55228 19.4477 10 20 10Z" fill="#0383FD"/>
<path d="M29 38.5C29 40.433 30.567 42 32.5 42C34.433 42 36 40.433 36 38.5C36 36.567 34.433 35 32.5 35C30.567 35 29 36.567 29 38.5ZM34.25 38.5C34.25 39.4665 33.4665 40.25 32.5 40.25C31.5335 40.25 30.75 39.4665 30.75 38.5C30.75 37.5335 31.5335 36.75 32.5 36.75C33.4665 36.75 34.25 37.5335 34.25 38.5Z" fill="#0383FD"/>
<path d="M20 15C14.4772 15 10 19.4772 10 25C10 30.5228 14.4772 35 20 35C25.5228 35 30 30.5228 30 25C29.9935 19.4799 25.5201 15.0065 20 15ZM20 33.1818C15.4813 33.1818 11.8182 29.5187 11.8182 25C11.8182 20.4813 15.4813 16.8182 20 16.8182C24.5187 16.8182 28.1818 20.4813 28.1818 25C28.1768 29.5166 24.5166 33.1768 20 33.1818Z" fill="#0383FD"/>
</svg>

<svg width="54" height="46" fill="none" xmlns="http://www.w3.org/2000/svg"><path d="M16.319 10.709a.87.87 0 00.645-.6.86.86 0 00-.214-.85.878.878 0 00-.853-.228C8.9 10.757 3.99 16.988 4 24.135c0 .478.39.865.873.865a.869.869 0 00.872-.865C5.737 17.783 10.1 12.243 16.32 10.71z" fill="#0383FD"/><path d="M51.3 29.767H39.6v-5.411a19.717 19.717 0 00-3.488-11.236l.488-6.1c.071-.88-.29-1.74-.969-2.302a24.823 24.823 0 00-8.83-4.621 2.676 2.676 0 00-2.59.672l-3.876 3.773c-.175-.005-.355-.026-.535-.026C8.87 4.528.012 13.404 0 24.356v16.233A5.41 5.41 0 005.4 46h27.9a6.304 6.304 0 006.228-5.411H47.7v2.706A2.703 2.703 0 0050.4 46h.9c1.491 0 2.7-1.211 2.7-2.706V32.472a2.703 2.703 0 00-2.7-2.705zM25.47 2.057a.866.866 0 01.839-.228 23.041 23.041 0 018.184 4.286.902.902 0 01.313.763l-.336 4.187c-.223-.246-.433-.503-.669-.739A19.62 19.62 0 0022.704 4.75l2.766-2.693zM10.8 44.197H5.4a3.604 3.604 0 01-3.6-3.608v-8.117a.9.9 0 01.9-.901h.692a.9.9 0 01.79.469 19.687 19.687 0 007.947 7.996c.29.155.472.459.471.788v2.47a.9.9 0 01-.9.902h-.9zm27-4.51a4.51 4.51 0 01-4.5 4.51H14.234a2.68 2.68 0 00.166-.903v-2.47a2.676 2.676 0 00-1.447-2.391 18.199 18.199 0 01-7.193-7.26 2.7 2.7 0 00-2.368-1.406H2.7c-.307.003-.612.06-.9.166v-5.577c0-9.962 8.059-18.037 18-18.037s18 8.076 18 18.037v15.331zm1.8-.902v-7.214h2.7v1.803a.9.9 0 101.8 0v-1.803h3.6v7.214h-8.1zm12.6 4.51a.9.9 0 01-.9.901h-.9a.9.9 0 01-.9-.901V31.57h1.8a.9.9 0 01.9.901v10.822z" fill="#0383FD"/><path d="M20 10a1 1 0 100-2 1 1 0 000 2zm9 28.5a3.5 3.5 0 107 0 3.5 3.5 0 00-7 0zm5.25 0a1.75 1.75 0 11-3.5 0 1.75 1.75 0 013.5 0zM20 15c-5.523 0-10 4.477-10 10s4.477 10 10 10 10-4.477 10-10c-.006-5.52-4.48-9.993-10-10zm0 18.182A8.182 8.182 0 1128.182 25 8.19 8.19 0 0120 33.182z" fill="#0383FD"/></svg>
